!!!SOCIAL_FUNCTION:	social dance with hunting dance
!!!PDT:	1956
!!!OTL: No_189_Snake_Dance_Song_(b).krn
!!!LANG: Non-Tone
!!!LING_GROUP: Muskogean
!!!REG: Florida
**kern
*staff1
=1-
*clefF4
*k[b-]
*M2/4
8F\L
8F\J
4c\
=2!|:
2c\
=3
4A\
4c\
=4
8c^\L
8B-\J
8A^\L
8F\J
=5
4.A\
8F\
=6
2F\
=7
4F\
8F\
8r
=8
4c\
4A\
=9
4.A\
8F\
=10
4B-\
8A\L
8F\J
=11
4A\
8F\L
8F\J
=12
4.F\
8r
=13
2E-\
=14
4E-\
8E-\
8r
=15
2F\
=16||
*M3/4
2F\
4r
=17||
*M2/4
4F\
4c\
=18||
*M3/4
2F\
4F\
=19
[4B-\
(8B-\L]
16E\Jk)
16r
4B-\
=20
[4B-\
(8B-\L]
16E\Jk)
16r
4B-\
=21||
*M5/4
1r
4r
=22||
*M3/4
8.F\L
16F\Jk
8.F\L
16F\Jk
4c\
=23
4.c\
8B-\
8A\L
8F\J
=24||
*M2/4
4A\
4r
=25||
*M3/4
8.c\L
16B-\Jk
8.A\L
16c\Jk
4c\
=26!|:
*M2/4
8c\L
8B-\J
4A\
=27||
*M3/4
8B-\L
8A\J
8A\L
8F\J
8.A\L
16F\Jk
=28||
*M2/4
2F\
=29
8.c\L
16B-\Jk
4A\
=30
8F\L
8F\J
4F\
=31
2F\
=32
8.A\L
16F\Jk
4F\
=33
4F\
4r
=34
*M3/4
2F\
4c\
==:|!
*-
